images_sukapura_svg/cmd/lc_formatpaintbrush.svg

<svg viewBox="0 0 24 24" xmlns="http://www.w3.org/2000/svg"><g transform="matrix(.94175124 0 0 .90782823 .174746 2.027779)"><path d="m11.003207 6.0051156 6.213682 4.3062984c.907371.545594 1.173892 1.818531.117811 2.523559l-1.3347 2.165027-9-6 1.6257994-2.4333933c.4973822-.8952347 1.238349-1.2182456 2.3773916-.5614919z" fill="#dadada" stroke="#848489" stroke-width="1.081509"/><path d="m6.559322 10 8.79661 6-1.934816 3.436078c-.333999.408747-.200397.966114.133618 1.189061l1.436197 1.374861h-8.1162173c-3.3110346 0-4.8320423-3.471719-3.2398121-6.539903z" fill="#ffa914" stroke="#f58b00"/><path d="m17.120086-.6690851-4.968365 7.2476655 2.995984 2.2030599 4.769333-7.6397132z" fill="#dadada" stroke="#848489" stroke-linecap="round" stroke-width="1.081509"/><path d="m3.0039062 18.207031c-.0633258 2.043711 1.321638 3.792969 3.6445313 3.792969h7.6445315l-1.353516-1.248047c-.157779-.10152-.267773-.27957-.298828-.478515z" fill="#148eff" stroke="#0070f5" transform="matrix(1.0618515 0 0 1.10153 -.185554 -2.233659)"/></g><g fill="none" stroke="#fff"><path d="m8.3813559 9.7584746 1.0254238-1.7584746h.5932203l6.341569 4.436566" stroke-linecap="square" stroke-linejoin="round"/><path d="m12.694915 8 3.944915-5.4449153 1.36017.9533899"/></g></svg>

<?xml version="1.0" encoding="UTF-8" standalone="no"?>
<svg
   xmlns:dc="http://purl.org/dc/elements/1.1/"
   xmlns:cc="http://creativecommons.org/ns#"
   xmlns:rdf="http://www.w3.org/1999/02/22-rdf-syntax-ns#"
   xmlns:svg="http://www.w3.org/2000/svg"
   xmlns="http://www.w3.org/2000/svg"
   xmlns:sodipodi="http://sodipodi.sourceforge.net/DTD/sodipodi-0.dtd"
   xmlns:inkscape="http://www.inkscape.org/namespaces/inkscape"
   viewBox="0 0 24 24"
   version="1.1"
   id="svg10"
   sodipodi:docname="lc_formatpaintbrush.svg"
   inkscape:version="0.92.3 (unknown)"
   inkscape:export-filename="/home/rizmut/Dokumen/Rizmut/Github/libreoffice-style-colibrex/images_colibrex/cmd/lc_formatpaintbrush.png"
   inkscape:export-xdpi="96"
   inkscape:export-ydpi="96">
  <metadata
     id="metadata16">
    <rdf:RDF>
      <cc:Work
         rdf:about="">
        <dc:format>image/svg+xml</dc:format>
        <dc:type
           rdf:resource="http://purl.org/dc/dcmitype/StillImage" />
      </cc:Work>
    </rdf:RDF>
  </metadata>
  <defs
     id="defs14" />
  <sodipodi:namedview
     pagecolor="#ffffff"
     bordercolor="#666666"
     borderopacity="1"
     objecttolerance="10"
     gridtolerance="10"
     guidetolerance="10"
     inkscape:pageopacity="0"
     inkscape:pageshadow="2"
     inkscape:window-width="1366"
     inkscape:window-height="706"
     id="namedview12"
     showgrid="true"
     inkscape:zoom="13.906434"
     inkscape:cx="13.048244"
     inkscape:cy="10.105172"
     inkscape:window-x="0"
     inkscape:window-y="0"
     inkscape:window-maximized="1"
     inkscape:current-layer="svg10">
    <inkscape:grid
       type="xygrid"
       id="grid834" />
  </sodipodi:namedview>
  <g
     id="g829">
    <g
       id="g8"
       transform="matrix(.94175124 0 0 .90782823 .174746 2.027779)">
      <path
         sodipodi:nodetypes="cccccccc"
         style="fill:#dadada;fill-opacity:1;stroke:#848489;stroke-opacity:1;stroke-width:1.0815088;stroke-miterlimit:4;stroke-dasharray:none"
         inkscape:connector-curvature="0"
         id="path2"
         d="m 11.003207,6.0051156 6.213682,4.3062984 c 0.907371,0.545594 1.173892,1.818531 0.117811,2.523559 L 16,15 7,9 8.6257994,6.5666067 C 9.1231816,5.671372 9.8641484,5.3483611 11.003191,6.0051148 Z" />
      <path
         style="stroke:#f58b00;fill:#ffa914;fill-opacity:1;stroke-opacity:1"
         id="path4"
         fill="#eac282"
         d="m6.559322 10 8.79661 6-1.934816 3.436078c-.333999.408747-.200397.966114.133618 1.189061l1.436197 1.374861h-8.1162173c-3.3110346 0-4.8320423-3.471719-3.2398121-6.539903z" />
      <path
         sodipodi:nodetypes="ccccc"
         inkscape:connector-curvature="0"
         id="path6"
         d="m 17.120086,-0.6690851 -4.968365,7.2476655 2.995984,2.2030599 4.769333,-7.6397132 z"
         style="fill:#dadada;fill-opacity:1;stroke:#848489;stroke-width:1.08150876;stroke-linecap:round;stroke-miterlimit:4;stroke-dasharray:none;stroke-opacity:1" />
      <path
         id="path847"
         transform="matrix(1.0618515,0,0,1.10153,-0.18555431,-2.2336593)"
         d="M 3.0039062 18.207031 C 2.9405804 20.250742 4.3255442 22 6.6484375 22 L 14.292969 22 L 12.939453 20.751953 C 12.781674 20.650433 12.67168 20.472383 12.640625 20.273438 L 3.0039062 18.207031 z "
         style="fill:#148eff;stroke:#0070f5;stroke-width:0.99999994px;stroke-linecap:butt;stroke-linejoin:miter;stroke-opacity:1;fill-opacity:1" />
    </g>
    <path
       sodipodi:nodetypes="cccc"
       inkscape:connector-curvature="0"
       id="path839"
       d="M 8.3813559,9.7584746 9.4067797,8 H 10 l 6.341569,4.436566"
       style="fill:none;stroke:#ffffff;stroke-width:1px;stroke-linecap:square;stroke-linejoin:round;stroke-opacity:1" />
    <path
       sodipodi:nodetypes="ccc"
       inkscape:connector-curvature="0"
       id="path845"
       d="M 12.694915,8 16.63983,2.5550847 18,3.5084746"
       style="fill:none;stroke:#ffffff;stroke-width:1px;stroke-linecap:butt;stroke-linejoin:miter;stroke-opacity:1" />
  </g>
</svg>
